static/img/icons-counter-dont.svg

<svg width="240" height="240" viewBox="0 0 240 240" fill="none" xmlns="http://www.w3.org/2000/svg"><path fill="#fff" d="M0 0h240v240H0z"/><path stroke="#DFDFDF" d="M39.5 39.5h160v160h-160z"/><path d="M49.5 39.5v160m10-160v160m10-160v160m10-160v160m10-160v160m10-160v160m10-160v160m10-160v160m10-160v160m10-160v160m10-160v160m10-160v160m10-160v160m10-160v160m10-160v160m10-150h-160m160 10h-160m160 10h-160m160 10h-160m160 10h-160m160 10h-160m160 10h-160m160 10h-160m160 10h-160m160 10h-160m160 10h-160m160 10h-160m160 10h-160m160 10h-160m160 10h-160" stroke="#DFDFDF" stroke-linecap="square"/><path fill-rule="evenodd" clip-rule="evenodd" d="M211 39c5.523 0 10-4.477 10-10s-4.477-10-10-10-10 4.477-10 10 4.477 10 10 10Z" fill="#DB3B21"/><path d="m214 26-6 6.002M208 26l6 6.002" stroke="#fff" stroke-width="2" stroke-linecap="round"/><path fill-rule="evenodd" clip-rule="evenodd" d="M49 150.202V190h39.798l95.374-95.374c7.771-7.77 7.771-20.37 0-28.141l-11.657-11.657c-7.771-7.77-20.37-7.77-28.141 0L49 150.202Zm14.924 15.528v9.346h9.346l-9.346-9.346Zm5.88-15.226 18.692 18.692 66.556-66.556-18.692-18.692-66.556 66.556Zm103.815-66.43-8.014 8.013-18.692-18.692 8.014-8.014a4.974 4.974 0 0 1 7.035 0l11.657 11.657a4.976 4.976 0 0 1 0 7.035Z" fill="#6E49CB" fill-opacity=".3" stroke="#6E49CB"/></svg>

<svg width="240" height="240" viewBox="0 0 240 240" xmlns="http://www.w3.org/2000/svg"><g fill="none" fill-rule="evenodd"><path fill="#FFF" d="M0 0h240v240H0z"/><g stroke="#DFDFDF"><path d="M39.5 39.5h160v160h-160z"/><g stroke-linecap="square"><path d="M49.5 39.5v160M59.5 39.5v160M69.5 39.5v160M79.5 39.5v160M89.5 39.5v160M99.5 39.5v160M109.5 39.5v160M119.5 39.5v160M129.5 39.5v160M139.5 39.5v160M149.5 39.5v160M159.5 39.5v160M169.5 39.5v160M179.5 39.5v160M189.5 39.5v160M199.5 49.5h-160M199.5 59.5h-160M199.5 69.5h-160M199.5 79.5h-160M199.5 89.5h-160M199.5 99.5h-160M199.5 109.5h-160M199.5 119.5h-160M199.5 129.5h-160M199.5 139.5h-160M199.5 149.5h-160M199.5 159.5h-160M199.5 169.5h-160M199.5 179.5h-160M199.5 189.5h-160"/></g></g><g transform="translate(201 19)"><circle fill="#DB3B21" cx="10" cy="10" r="10"/><path d="M13 7l-6 6.002M7 7l6 6.002" stroke="#FFF" stroke-width="2" stroke-linecap="round"/></g><path d="M89.5 189.5h-40v-40l94.14-94.142c7.812-7.81 20.475-7.81 28.285 0l11.717 11.716c7.81 7.81 7.81 20.474 0 28.285L89.5 189.5zm-20.142-30.78v10.922H80.28L69.358 158.72zm14.894-15.65l11.679 11.678 48.888-48.888-11.679-11.68-48.888 48.89zm85.39-61.788l-11.906 11.906-11.924-11.924 11.906-11.906 11.924 11.924z" stroke="#6E49CB" fill-opacity=".3" fill="#6E49CB"/></g></svg>
